src/images/single-assets/TOR.svg

<svg xmlns="http://www.w3.org/2000/svg" xml:space="preserve" style="height:45px;width:45px;margin-right:10px" viewBox="0 0 320 321"><path d="M0 5.537c-5.168 0-9.371-4.204-9.371-9.371 0-.533.055-1.053.14-1.561l-10.095-5.024 7.456 47.426-46.207-31.068-39.266 22.157 44.17 14.11-15.829 11.882a9.3 9.3 0 0 1 .835 3.846c0 5.167-4.204 9.371-9.372 9.371-5.167 0-9.371-4.204-9.371-9.371s4.204-9.371 9.371-9.371c2.123 0 4.077.717 5.65 1.912l8.779-6.59-45.732-14.609 48.73-27.496 5.889-44.974-37.802 26.855v-20.526c-4.052-1.033-7.06-4.702-7.06-9.07 0-5.168 4.204-9.372 9.371-9.372s9.372 4.204 9.372 9.372c0 4.368-3.009 8.037-7.06 9.07v11.571l39.138-27.804-7.229 55.204 37.411 25.154-7.201-45.808 17.929 8.923c1.718-2.176 4.373-3.58 7.354-3.58 5.168 0 9.372 4.203 9.372 9.371 0 5.167-4.204 9.371-9.372 9.371m-55.318-81.604c-43.54 0-78.835 35.296-78.835 78.836s35.295 78.835 78.835 78.835S23.517 46.308 23.517 2.769c0-43.54-35.296-78.836-78.835-78.836" style="fill:#be7c40;fill-rule:nonzero" transform="translate(269.464 154.523)scale(1.97882)"/><path d="M-4.749-4.749A4.755 4.755 0 0 1 0 0a4.756 4.756 0 0 1-4.749 4.749A4.755 4.755 0 0 1-9.497 0a4.754 4.754 0 0 1 4.748-4.749" style="fill:#be7c40;fill-rule:nonzero" transform="matrix(0 -1.97882 -1.97882 0 91.936 54.229)"/><path d="M0-9.496a4.753 4.753 0 0 1 4.748 4.748A4.753 4.753 0 0 1 0 0a4.753 4.753 0 0 1-4.748-4.748A4.753 4.753 0 0 1 0-9.496" style="fill:#be7c40;fill-rule:nonzero" transform="matrix(-1.97882 0 0 1.97882 269.464 156.33)"/><path d="M0-9.496a4.753 4.753 0 0 1 4.748 4.748A4.753 4.753 0 0 1 0 0a4.753 4.753 0 0 1-4.748-4.748A4.753 4.753 0 0 1 0-9.496" style="fill:#be7c40;fill-rule:nonzero" transform="matrix(-1.97882 0 0 1.97882 116.028 278.56)"/></svg>

<svg viewBox="0 0 320 321" xmlns="http://www.w3.org/2000/svg" xmlns:xlink="http://www.w3.org/1999/xlink" xml:space="preserve" style="height: 45px; width: 45px; margin-right: 10px;"><g transform="matrix(1.97882,0,0,1.97882,-1769.69,4.00003)"><g transform="matrix(1,0,0,1,1030.49,76.067)"><path d="M0,5.537C-5.168,5.537 -9.371,1.333 -9.371,-3.834C-9.371,-4.367 -9.316,-4.887 -9.231,-5.395L-19.326,-10.419L-11.87,37.007L-58.077,5.939L-97.343,28.096L-53.173,42.206L-69.002,54.088C-68.47,55.263 -68.167,56.563 -68.167,57.934C-68.167,63.101 -72.371,67.305 -77.539,67.305C-82.706,67.305 -86.91,63.101 -86.91,57.934C-86.91,52.766 -82.706,48.563 -77.539,48.563C-75.416,48.563 -73.462,49.28 -71.889,50.475L-63.11,43.885L-108.842,29.276L-60.112,1.78L-54.223,-43.194L-92.025,-16.339L-92.025,-36.865C-96.077,-37.898 -99.085,-41.567 -99.085,-45.935C-99.085,-51.103 -94.881,-55.307 -89.714,-55.307C-84.546,-55.307 -80.342,-51.103 -80.342,-45.935C-80.342,-41.567 -83.351,-37.898 -87.402,-36.865L-87.402,-25.294L-48.264,-53.098L-55.493,2.106L-18.082,27.26L-25.283,-18.548L-7.354,-9.625C-5.636,-11.801 -2.981,-13.205 0,-13.205C5.168,-13.205 9.372,-9.002 9.372,-3.834C9.372,1.333 5.168,5.537 0,5.537M-55.318,-76.067C-98.858,-76.067 -134.153,-40.771 -134.153,2.769C-134.153,46.308 -98.858,81.604 -55.318,81.604C-11.779,81.604 23.517,46.308 23.517,2.769C23.517,-40.771 -11.779,-76.067 -55.318,-76.067" style="fill: rgb(190, 124, 64); fill-rule: nonzero;"></path></g><g transform="matrix(0,-1,-1,0,940.776,25.3833)"><path d="M-4.749,-4.749C-2.131,-4.749 -0,-2.619 -0,-0C-0,2.617 -2.131,4.749 -4.749,4.749C-7.367,4.749 -9.497,2.617 -9.497,-0C-9.497,-2.619 -7.367,-4.749 -4.749,-4.749" style="fill: rgb(190, 124, 64); fill-rule: nonzero;"></path></g><g transform="matrix(-1,0,0,1,1030.49,76.9806)"><path d="M0,-9.496C2.618,-9.496 4.748,-7.366 4.748,-4.748C4.748,-2.13 2.618,0 0,0C-2.618,0 -4.748,-2.13 -4.748,-4.748C-4.748,-7.366 -2.618,-9.496 0,-9.496" style="fill: rgb(190, 124, 64); fill-rule: nonzero;"></path></g><g transform="matrix(-1,0,0,1,952.951,138.749)"><path d="M0,-9.496C2.618,-9.496 4.748,-7.366 4.748,-4.748C4.748,-2.13 2.618,0 0,0C-2.619,0 -4.748,-2.13 -4.748,-4.748C-4.748,-7.366 -2.619,-9.496 0,-9.496" style="fill: rgb(190, 124, 64); fill-rule: nonzero;"></path></g></g></svg>
